X:618
T:Miss Douglas
R:Strathspey
B:The Athole Collection
M:C
L:1/8
K:G
d2 B>c d<GB<G|E<c A>G F<D DB/c/|d2 B<g d<GB<G|
E<AD<F G2G2:|
d<g g>f e<a a>g|f<de<f g>a g<G|d<g g>f e<a a>g|f<de<f g/g/g g>a|
b<ga<f g<ef<d|e<cd<B A>B c<e|d2 B<g d<GB<G|E<c B/A/G/F/ G2G2||

